X:1
T:Prelude in C minor for the Lute modified \"for big hands\"
T:Prelude in C minor for the Lute modified "for big hands"
T:J.S. Bach (BWV999) - Patrice Reich
T:Creative Commons
C:J.S. Bach (BWV999) - Patrice Reich
%%score 1 2
L:1/8
M:3/4
K:Eb
V:1 treble nm="Piano"
V:2 bass 
V:1
 z/ C/G/e/ G/C/G/C/ z/ C/z/C/ | z/ C/G/e/ G/C/G/C/ z/ C/z/C/ | z/ C/A/f/ A/C/A/C/ z/ C/z/C/ | %3
 z/ C/A/f/ A/C/A/C/ z/ C/z/C/ | z/ =B,/F/d/ F/B,/F/B,/ z/ B,/z/B,/ | %5
 z/ =B,/F/d/ F/B,/F/B,/ z/ B,/z/B,/ | z/ G,/E/c/ E/G,/E/G,/ z/ G,/z/G,/ | %7
 z/ G,/E/c/ E/G,/E/G,/ z/ G,/z/G,/ | z/ G,/E/c/ E/G,/E/G,/ z/ G,/z/G,/ | %9
 z/ G,/E/c/ E/G,/E/G,/ z/ G,/z/G,/ | z/ =A,/E/c/ E/A,/E/A,/ z/ A,/z/A,/ | %11
 z/ =A,/E/c/ E/A,/E/A,/ z/ A,/z/A,/ | z/ =A,/D/B/ D/A,/D/A,/ z/ A,/z/A,/ | %13
 z/ G,/D/B/ D/G,/D/G,/ z/ G,/z/G,/ | z/ B,/G/d/ G/B,/G/B,/ z/ B,/z/B,/ | %15
 z/ =A,/G/e/ G/A,/G/A,/ z/ A,/z/A,/ | z/ =A,/^F/c/ F/A,/F/A,/ z/ A,/z/A,/ | %17
 z/ =A,/^F/c/ F/A,/F/A,/ z/ A,/z/A,/ | z/ B,/G/d/ G/B,/G/B,/ z/ B,/z/B,/ | %19
 z/ C/=A/^f/ A/C/A/C/ z/ C/z/C/ | z/ D/B/g/ B/D/B/D/ z/ D/z/D/ | z/ D/c/^f/ c/D/c/D/ z/ D/z/D/ | %22
 z/ ^C/B/g/ B/C/B/C/ z/ C/z/C/ | z/ C/=A/e/ A/C/A/C/ z/ C/z/C/ | %24
 z/ B,/G/=e/ G/B,/G/B,/ z/ B,/z/B,/ | z/ =A,/G/c/ G/A,/G/A,/ z/ A,/z/A,/ | %26
 z/ =A,/^F/c/ F/A,/F/A,/ z/ A,/z/A,/ | z/ G,/=E/B/ E/G,/E/G,/ z/ G,/z/G,/ | %28
 z/ ^F,/E/=A/ E/F,/E/F,/ z/ F,/z/F,/ | z/ G,/D/B/ D/G,/D/G,/ z/ G,/z/G,/ | %30
 z/ G,/C/=A/ C/G,/C/G,/ z/ G,/z/G,/ | z/ ^F,/C/=A/ C/F,/C/F,/ z/ F,/z/F,/ | %32
 z/ ^F,/C/=A/ C/F,/C/F,/ z/ F,/z/F,/ | z/ G,/C/=A/ =B/G,/B/G,/ z/ G,/z/G,/ | %34
 z/ =A,/^F/c/ F/A,/F/A,/ z/ A,/z/A,/ | z/ C/=A/^f/ A/C/A/C/ z/ C/z/C/ | %36
 z/ =B,/G/d/ G/B,/G/B,/ z/ B,/z/B,/ | z/ =B,/F/d/ F/B,/F/B,/ z/ B,/z/B,/ | %38
 z/ G,/E/c/ E/G,/E/G,/ z/ G,/z/G,/ | z/ ^F,/E/c/ E/F,/E/F,/ z/ F,/z/F,/ | %40
 z/ ^F,/E/c/ E/F,/E/F,/ z/ F,/z/F,/ | z/ G,/D/=B/ D/G,/D/B/ c/E/=A,/^f/ | !fermata![=Bdg]2 |] %43
V:2
 C,2 z2 EG, | C,2 z2 EG, | C,2 z2 FA, | C,2 z2 FA, | C,2 z2 FA, | C,2 z2 FA, | C,2 z2 CE, | %7
 B,,2 z2 CE, | A,,2 z2 CE, | G,,2 z2 CE, | ^F,,2 z2 CE, | ^F,,2 z2 D^F, | G,,2 z2 B,D, | %13
 G,,2 z2 G,B,, | E,,2 z2 EG, | C,2 z2 =A,C, | D,,2 z2 =A,D, | D,,2 z2 =A,D, | D,,2 z2 B,D, | %19
 D,,2 z2 CE, | D,,2 z2 DG, | D,,2 z2 ^F=A, | E,,2 z2 EG, | D,,2 z2 D^F, | D,,2 z2 ^C=E, | %25
 D,,2 z2 CE, | D,,2 z2 =A,D, | D,,2 z2 B,^C, | D,,2 z2 =A,C, | D,,2 z2 G,B,, | D,,2 z2 CE, | %31
 D,,2 z2 =A,D, | G,,2 z2 CE, | G,,2 z2 =B,D, | G,,2 z2 CE, | G,,2 z2 CE, | G,,2 z2 DG, | %37
 G,,2 z2 FA, | G,,2 z2 CE, | G,,2 z2 CE, | G,,2 z2 CE, | G,,2 z2 z2 | !fermata!G,,2 |] %43

